svg/fluentui-system-icons/ic_fluent_clock_alarm_32_regular.svg

<svg width="32" height="32" viewBox="0 0 32 32" fill="none" xmlns="http://www.w3.org/2000/svg">
<path d="M16 10V16H20C20.5523 16 21 16.4477 21 17C21 17.5523 20.5523 18 20 18H15C14.4477 18 14 17.5523 14 17V10C14 9.44772 14.4477 9 15 9C15.5523 9 16 9.44772 16 10ZM3 8C3 9.52266 3.68063 10.8864 4.75425 11.8034C4.26659 13.1097 4 14.5237 4 16C4 18.9537 5.06716 21.6582 6.83695 23.7488L4.29289 26.2929C3.90237 26.6834 3.90237 27.3166 4.29289 27.7071C4.68342 28.0976 5.31658 28.0976 5.70711 27.7071L8.25116 25.1631C10.3418 26.9328 13.0463 28 16 28C18.9537 28 21.6582 26.9328 23.7488 25.1631L26.2929 27.7071C26.6834 28.0976 27.3166 28.0976 27.7071 27.7071C28.0976 27.3166 28.0976 26.6834 27.7071 26.2929L25.1631 23.7488C26.9328 21.6582 28 18.9537 28 16C28 14.5237 27.7334 13.1097 27.2458 11.8034C28.3194 10.8864 29 9.52266 29 8C29 5.23858 26.7614 3 24 3C22.4773 3 21.1136 3.68063 20.1966 4.75425C18.8903 4.26659 17.4763 4 16 4C14.5237 4 13.1097 4.26659 11.8034 4.75425C10.8864 3.68063 9.52266 3 8 3C5.23858 3 3 5.23858 3 8ZM5 8C5 6.34315 6.34315 5 8 5C8.71629 5 9.37395 5.25103 9.88979 5.66992C8.15356 6.69911 6.69911 8.15356 5.66992 9.88979C5.25103 9.37395 5 8.71629 5 8ZM27 8C27 8.71629 26.749 9.37395 26.3301 9.8898C25.3009 8.15357 23.8464 6.69911 22.1102 5.66992C22.6261 5.25103 23.2837 5 24 5C25.6569 5 27 6.34315 27 8ZM16 6C21.5228 6 26 10.4772 26 16C26 21.5228 21.5228 26 16 26C10.4772 26 6 21.5228 6 16C6 10.4772 10.4772 6 16 6Z" fill="#212121"/>
</svg>

<svg xmlns="http://www.w3.org/2000/svg" width="32" height="32"><path d="M16 10v6h4a1 1 0 1 1 0 2h-5a1 1 0 0 1-1-1v-7a1 1 0 1 1 2 0ZM3 8c0 1.523.68 2.886 1.754 3.803A11.975 11.975 0 0 0 4 16c0 2.954 1.067 5.658 2.837 7.749l-2.544 2.544a1 1 0 1 0 1.414 1.414l2.544-2.544A11.953 11.953 0 0 0 16 28c2.954 0 5.658-1.067 7.749-2.837l2.544 2.544a1 1 0 0 0 1.414-1.414l-2.544-2.544A11.952 11.952 0 0 0 28 16c0-1.476-.267-2.89-.754-4.197a5 5 0 1 0-7.05-7.05A11.975 11.975 0 0 0 16 4.001c-1.476 0-2.89.267-4.197.754A5 5 0 0 0 3 8Zm2 0a3 3 0 0 1 4.89-2.33 12.06 12.06 0 0 0-4.22 4.22A2.987 2.987 0 0 1 5 8Zm22 0c0 .716-.251 1.374-.67 1.89a12.06 12.06 0 0 0-4.22-4.22A3 3 0 0 1 27 8ZM16 6c5.523 0 10 4.477 10 10s-4.477 10-10 10S6 21.523 6 16 10.477 6 16 6Z"/></svg>
